X: 1318
T: An Old Friend
R: reel
M: 4/4
K: Edorian
EB2A GAF2|EB2A D'D'C'2|EB2A FGE2|EGAGB2B2|EB2A GAE2|
EB2A D'D'C'2|EG2A GABD'|edcAB2B2:|
eg/a/bagfe2|eg/a/bagab2|eg/a/bagae2|agfde2e2|
eg/a/bagfe2|eg/a/bag2g2|eg/a/bagfe2|dgfde2e2|
EB2A GAF2|EB2A D'D'C'2|EB2A FGE2|EGAGB2B2|
EB2A GAE2|EB2A D'D'C'2|EG2A GABD'|edcAB2B2||

